packages/clerk-js/src/v4/icons/eye-slash.svg

<svg viewBox="0 0 16 16" fill="none" xmlns="http://www.w3.org/2000/svg">
<path fill-rule="evenodd" clip-rule="evenodd" d="M2.96569 1.83429C2.65327 1.52187 2.14673 1.52187 1.83431 1.83429C1.5219 2.14671 1.5219 2.65324 1.83431 2.96566L3.01291 4.14426C1.78292 5.1261 0.84891 6.46313 0.366211 8.00001C1.38563 11.2457 4.41786 13.6 7.99996 13.6C9.29878 13.6 10.5253 13.2905 11.6098 12.7412L13.0343 14.1657C13.3467 14.4781 13.8533 14.4781 14.1657 14.1657C14.4781 13.8532 14.4781 13.3467 14.1657 13.0343L12.9871 11.8557C14.217 10.8738 15.151 9.53681 15.6337 7.99995C14.6143 4.75428 11.5821 2.39998 7.99998 2.39998C6.70117 2.39998 5.47466 2.70949 4.39017 3.25877L2.96569 1.83429ZM5.24306 6.37441C4.96155 6.85082 4.80001 7.40653 4.80001 7.99998C4.80001 9.76729 6.2327 11.2 8.00001 11.2C8.59345 11.2 9.14917 11.0384 9.62558 10.7569L8.41444 9.54578C8.28226 9.58113 8.14333 9.59998 8.00001 9.59998C7.11635 9.59998 6.40001 8.88363 6.40001 7.99998C6.40001 7.85665 6.41885 7.71773 6.4542 7.58555L5.24306 6.37441ZM7.58557 6.45417L6.37443 5.24303C6.85084 4.96152 7.40656 4.79998 8.00001 4.79998C9.76732 4.79998 11.2 6.23267 11.2 7.99998C11.2 8.59342 11.0385 9.14914 10.7569 9.62555L9.54581 8.41442C9.58116 8.28223 9.60001 8.14331 9.60001 7.99998C9.60001 7.11632 8.88366 6.39998 8.00001 6.39998C7.85668 6.39998 7.71775 6.41882 7.58557 6.45417Z" fill="currentColor"/>
</svg>

<svg viewBox="0 0 16 16" fill="none" xmlns="http://www.w3.org/2000/svg"><path fill-rule="evenodd" clip-rule="evenodd" d="M2.966 1.834a.8.8 0 0 0-1.132 1.132l1.179 1.178A8.012 8.012 0 0 0 .366 8a8.004 8.004 0 0 0 11.244 4.741l1.424 1.425a.8.8 0 0 0 1.132-1.132l-1.179-1.178A8.012 8.012 0 0 0 15.634 8 8.003 8.003 0 0 0 4.39 3.259L2.966 1.834Zm2.277 4.54a3.2 3.2 0 0 0 4.383 4.382l-1.212-1.21a1.602 1.602 0 0 1-1.96-1.96l-1.21-1.212Zm2.343.08L6.374 5.243a3.2 3.2 0 0 1 4.382 4.383l-1.21-1.212a1.602 1.602 0 0 0-1.96-1.96Z" fill="currentColor"/></svg>
